packages/sources/assets/src/assets/flag-ag.svg

<svg width="28" height="20" viewBox="0 0 28 20" fill="none" xmlns="http://www.w3.org/2000/svg">
<rect width="28" height="20" rx="2" fill="white"/>
<mask id="mask0_503_3869" style="mask-type:alpha" maskUnits="userSpaceOnUse" x="0" y="0" width="28" height="20">
<rect width="28" height="20" rx="2" fill="white"/>
</mask>
<g mask="url(#mask0_503_3869)">
<rect width="28" height="20" fill="#E2243B"/>
<path fill-rule="evenodd" clip-rule="evenodd" d="M0 0H28L14 20L0 0Z" fill="#262626"/>
<mask id="mask1_503_3869" style="mask-type:alpha" maskUnits="userSpaceOnUse" x="0" y="0" width="28" height="20">
<path fill-rule="evenodd" clip-rule="evenodd" d="M0 0H28L14 20L0 0Z" fill="white"/>
</mask>
<g mask="url(#mask1_503_3869)">
<g filter="url(#filter0_d_503_3869)">
<path fill-rule="evenodd" clip-rule="evenodd" d="M14 11L11.7039 13.5433L11.8787 10.1213L8.45672 10.2961L11 8L8 5.33333L11.8787 6L11.3333 2L14 5.33333L16.6667 2L16.1213 6L20 5.33333L17 8L19.5433 10.2961L16.1213 10.1213L16.2961 13.5433L14 11Z" fill="#FFCF3C"/>
</g>
<g filter="url(#filter1_d_503_3869)">
<path fill-rule="evenodd" clip-rule="evenodd" d="M0 13.3333H28V8H0V13.3333Z" fill="#1984D8"/>
</g>
<path fill-rule="evenodd" clip-rule="evenodd" d="M0 20H28V13.3333H0V20Z" fill="white"/>
</g>
</g>
<defs>
<filter id="filter0_d_503_3869" x="8" y="2" width="12" height="11.5433" filterUnits="userSpaceOnUse" color-interpolation-filters="sRGB">
<feFlood flood-opacity="0" result="BackgroundImageFix"/>
<feColorMatrix in="SourceAlpha" type="matrix" values="0 0 0 0 0 0 0 0 0 0 0 0 0 0 0 0 0 0 127 0" result="hardAlpha"/>
<feOffset/>
<feColorMatrix type="matrix" values="0 0 0 0 0 0 0 0 0 0 0 0 0 0 0 0 0 0 0.06 0"/>
<feBlend mode="normal" in2="BackgroundImageFix" result="effect1_dropShadow_503_3869"/>
<feBlend mode="normal" in="SourceGraphic" in2="effect1_dropShadow_503_3869" result="shape"/>
</filter>
<filter id="filter1_d_503_3869" x="0" y="8" width="28" height="5.33333" filterUnits="userSpaceOnUse" color-interpolation-filters="sRGB">
<feFlood flood-opacity="0" result="BackgroundImageFix"/>
<feColorMatrix in="SourceAlpha" type="matrix" values="0 0 0 0 0 0 0 0 0 0 0 0 0 0 0 0 0 0 127 0" result="hardAlpha"/>
<feOffset/>
<feColorMatrix type="matrix" values="0 0 0 0 0 0 0 0 0 0 0 0 0 0 0 0 0 0 0.06 0"/>
<feBlend mode="normal" in2="BackgroundImageFix" result="effect1_dropShadow_503_3869"/>
<feBlend mode="normal" in="SourceGraphic" in2="effect1_dropShadow_503_3869" result="shape"/>
</filter>
</defs>
</svg>

<svg width="28" height="20" fill="none" xmlns="http://www.w3.org/2000/svg"><rect width="28" height="20" rx="2" fill="#fff"/><mask id="a" style="mask-type:alpha" maskUnits="userSpaceOnUse" x="0" y="0" width="28" height="20"><rect width="28" height="20" rx="2" fill="#fff"/></mask><g mask="url(#a)"><path fill="#E2243B" d="M0 0h28v20H0z"/><path fill-rule="evenodd" clip-rule="evenodd" d="M0 0h28L14 20 0 0Z" fill="#262626"/><mask id="b" style="mask-type:alpha" maskUnits="userSpaceOnUse" x="0" y="0" width="28" height="20"><path fill-rule="evenodd" clip-rule="evenodd" d="M0 0h28L14 20 0 0Z" fill="#fff"/></mask><g mask="url(#b)"><g filter="url(#c)"><path fill-rule="evenodd" clip-rule="evenodd" d="m14 11-2.296 2.543.175-3.422-3.422.175L11 8 8 5.333 11.879 6l-.546-4L14 5.333 16.667 2l-.546 4L20 5.333 17 8l2.543 2.296-3.422-.175.175 3.422L14 11Z" fill="#FFCF3C"/></g><g filter="url(#d)"><path fill-rule="evenodd" clip-rule="evenodd" d="M0 13.333h28V8H0v5.333Z" fill="#1984D8"/></g><path fill-rule="evenodd" clip-rule="evenodd" d="M0 20h28v-6.667H0V20Z" fill="#fff"/></g></g><defs><filter id="c" x="8" y="2" width="12" height="11.543" filterUnits="userSpaceOnUse" color-interpolation-filters="sRGB"><feFlood flood-opacity="0" result="BackgroundImageFix"/><feColorMatrix in="SourceAlpha" values="0 0 0 0 0 0 0 0 0 0 0 0 0 0 0 0 0 0 127 0" result="hardAlpha"/><feOffset/><feColorMatrix values="0 0 0 0 0 0 0 0 0 0 0 0 0 0 0 0 0 0 0.06 0"/><feBlend in2="BackgroundImageFix" result="effect1_dropShadow_503_3869"/><feBlend in="SourceGraphic" in2="effect1_dropShadow_503_3869" result="shape"/></filter><filter id="d" x="0" y="8" width="28" height="5.333" filterUnits="userSpaceOnUse" color-interpolation-filters="sRGB"><feFlood flood-opacity="0" result="BackgroundImageFix"/><feColorMatrix in="SourceAlpha" values="0 0 0 0 0 0 0 0 0 0 0 0 0 0 0 0 0 0 127 0" result="hardAlpha"/><feOffset/><feColorMatrix values="0 0 0 0 0 0 0 0 0 0 0 0 0 0 0 0 0 0 0.06 0"/><feBlend in2="BackgroundImageFix" result="effect1_dropShadow_503_3869"/><feBlend in="SourceGraphic" in2="effect1_dropShadow_503_3869" result="shape"/></filter></defs></svg>
